packages/bezier-icons/icons/shopping-filled.svg

<svg width="24" height="24" viewBox="0 0 24 24" fill="none" xmlns="http://www.w3.org/2000/svg">
<path fill-rule="evenodd" clip-rule="evenodd" d="M12 1C14.2091 1 16 2.79086 16 5V7H19.5C20.3284 7 21 7.67157 21 8.5V16.5C21 18.9853 18.9853 21 16.5 21H7.5C5.01472 21 3 18.9853 3 16.5V8.5C3 7.67157 3.67157 7 4.5 7H8V5C8 2.79086 9.79086 1 12 1ZM10 7H14V5C14 3.94564 13.1841 3.08183 12.1493 3.00549L12 3C10.9456 3 10.0818 3.81588 10.0055 4.85074L10 5V7ZM9 12C9.55228 12 10 11.5523 10 11C10 10.4477 9.55228 10 9 10C8.44772 10 8 10.4477 8 11C8 11.5523 8.44772 12 9 12ZM15 12C15.5523 12 16 11.5523 16 11C16 10.4477 15.5523 10 15 10C14.4477 10 14 10.4477 14 11C14 11.5523 14.4477 12 15 12Z" fill="#313234"/>
</svg>

<svg xmlns="http://www.w3.org/2000/svg" width="24" height="24" fill="none" viewBox="0 0 24 24"><path fill="#313234" fill-rule="evenodd" d="M12 1a4 4 0 0 1 4 4v2h3.5A1.5 1.5 0 0 1 21 8.5v8a4.5 4.5 0 0 1-4.5 4.5h-9A4.5 4.5 0 0 1 3 16.5v-8A1.5 1.5 0 0 1 4.5 7H8V5a4 4 0 0 1 4-4m-2 6h4V5a2 2 0 0 0-1.85-1.995L12 3a2 2 0 0 0-1.995 1.85L10 5zm-1 5a1 1 0 1 0 0-2 1 1 0 0 0 0 2m6 0a1 1 0 1 0 0-2 1 1 0 0 0 0 2" clip-rule="evenodd"/></svg>
